package/converter/svg/duotone/square-7.svg

<svg xmlns="http://www.w3.org/2000/svg" viewBox="0 0 448 512"><!-- Font Awesome Pro 6.0.0-alpha2 by @fontawesome - https://fontawesome.com License - https://fontawesome.com/license (Commercial License) --><defs><style>.fa-secondary{opacity:.4}</style></defs><path d="M384 32H64C28.654 32 0 60.654 0 96V416C0 451.346 28.654 480 64 480H384C419.346 480 448 451.346 448 416V96C448 60.654 419.346 32 384 32ZM317.125 163.375L205.125 371.375C200.781 379.438 192.531 384 183.969 384C180.125 384 176.25 383.094 172.625 381.125C160.937 374.844 156.594 360.281 162.875 348.625L255.812 176H152C138.75 176 128 165.25 128 152S138.75 128 152 128H296C304.438 128 312.281 132.438 316.594 139.688C320.938 146.938 321.125 155.938 317.125 163.375Z" class="fa-secondary"/><path d="M316.594 139.688C320.938 146.938 321.125 155.938 317.125 163.375L205.125 371.375C200.781 379.438 192.531 384 183.969 384C180.125 384 176.25 383.094 172.625 381.125C160.937 374.844 156.594 360.281 162.875 348.625L255.812 176H152C138.75 176 128 165.25 128 152S138.75 128 152 128H296C304.438 128 312.281 132.438 316.594 139.688Z" class="fa-primary"/></svg>

<svg xmlns="http://www.w3.org/2000/svg" viewBox="0 0 448 512"><!--! Font Awesome Pro 6.6.0 by @fontawesome - https://fontawesome.com License - https://fontawesome.com/license (Commercial License) Copyright 2024 Fonticons, Inc. --><defs><style>.fa-secondary{opacity:.4}</style></defs><path class="fa-secondary" d="M0 96L0 416c0 35.3 28.7 64 64 64l320 0c35.3 0 64-28.7 64-64l0-320c0-35.3-28.7-64-64-64L64 32C28.7 32 0 60.7 0 96zm128 56c0-13.3 10.7-24 24-24l144 0c8.4 0 16.3 4.4 20.6 11.7s4.5 16.2 .5 23.7c-37.3 69.3-74.7 138.7-112 208c-6.3 11.7-20.8 16-32.5 9.8s-16-20.8-9.8-32.5l93-172.6L152 176c-13.3 0-24-10.7-24-24z"/><path class="fa-primary" d="M128 152c0-13.3 10.7-24 24-24l144 0c8.4 0 16.3 4.4 20.6 11.7s4.5 16.2 .5 23.7l-112 208c-6.3 11.7-20.8 16-32.5 9.8s-16-20.8-9.8-32.5l93-172.6L152 176c-13.3 0-24-10.7-24-24z"/></svg>
